dist/img/youtube.svg

<svg width="17" height="16" viewBox="0 0 17 16" fill="none" xmlns="http://www.w3.org/2000/svg">
<g clip-path="url('#clip0_13_4')">
<path d="M15.7684 4.35678C15.594 3.70365 15.0799 3.18927 14.4272 3.01471C13.2442 2.69751 8.50024 2.69751 8.50024 2.69751C8.50024 2.69751 3.75635 2.69751 2.57326 3.01471C1.92057 3.1893 1.40651 3.70365 1.23204 4.35678C0.915039 5.54061 0.915039 8.01055 0.915039 8.01055C0.915039 8.01055 0.915039 10.4805 1.23204 11.6643C1.40651 12.3174 1.92057 12.8104 2.57326 12.985C3.75635 13.3022 8.50024 13.3022 8.50024 13.3022C8.50024 13.3022 13.2441 13.3022 14.4272 12.985C15.0799 12.8104 15.594 12.3174 15.7684 11.6643C16.0854 10.4805 16.0854 8.01055 16.0854 8.01055C16.0854 8.01055 16.0854 5.54061 15.7684 4.35678ZM6.94871 10.2531V5.76803L10.9137 8.01061L6.94871 10.2531Z" fill="#272727"></path>
</g>
<defs>
<clipPath id="clip0_13_4">
<rect width="16" height="14.1395" fill="white" transform="translate(0.5 0.930176)"></rect>
</clipPath>
</defs>
</svg>

<svg width="17" height="16" fill="none" xmlns="http://www.w3.org/2000/svg"><g clip-path="url('#clip0_13_4')"><path d="M15.768 4.357a1.9 1.9 0 0 0-1.34-1.342C13.243 2.698 8.5 2.698 8.5 2.698s-4.744 0-5.927.317a1.9 1.9 0 0 0-1.341 1.342C.915 5.54.915 8.01.915 8.01s0 2.47.317 3.653a1.873 1.873 0 0 0 1.341 1.321c1.183.317 5.927.317 5.927.317s4.744 0 5.927-.317a1.873 1.873 0 0 0 1.341-1.32c.317-1.184.317-3.654.317-3.654s0-2.47-.317-3.654Zm-8.82 5.896V5.768l3.966 2.243-3.965 2.242Z" fill="#272727"/></g><defs><clipPath id="clip0_13_4"><path fill="#fff" transform="translate(.5 .93)" d="M0 0h16v14.139H0z"/></clipPath></defs></svg>
